dist/assets/icons/youtube-icon.svg

<svg width="45" height="45" viewBox="0 0 45 45" fill="none" xmlns="http://www.w3.org/2000/svg">
<circle cx="22.5" cy="22.5" r="21.5" fill="white" stroke="#66C05D" stroke-width="2"/>
<path d="M28.4309 15H15.5691C13.0457 15 11 16.9711 11 19.4025V25.5975C11 28.0289 13.0457 30 15.5691 30H28.4309C30.9543 30 33 28.0289 33 25.5975V19.4025C33 16.9711 30.9543 15 28.4309 15ZM25.3408 22.8014L19.325 25.566C19.1647 25.6396 18.9795 25.527 18.9795 25.3559V19.654C18.9795 19.4805 19.1695 19.368 19.3302 19.4464L25.346 22.3838C25.5249 22.4711 25.5218 22.7183 25.3408 22.8014Z" fill="#66C05D"/>
</svg>

<svg width="45" height="45" fill="none" xmlns="http://www.w3.org/2000/svg"><circle cx="22.5" cy="22.5" r="21.5" fill="#fff" stroke="#66C05D" stroke-width="2"/><path d="M28.43 15H15.57C13.045 15 11 16.971 11 19.402v6.195C11 28.03 13.046 30 15.57 30h12.86c2.524 0 4.57-1.971 4.57-4.402v-6.195C33 16.97 30.954 15 28.43 15Zm-3.09 7.801-6.015 2.765c-.16.074-.345-.039-.345-.21v-5.702c0-.174.19-.286.35-.208l6.016 2.938a.229.229 0 0 1-.005.417Z" fill="#66C05D"/></svg>
